images/3235471.svg

<?xml version="1.0" encoding="UTF-8"?>
<svg xmlns="http://www.w3.org/2000/svg" xmlns:xlink="http://www.w3.org/1999/xlink" width="300pt" height="300pt" viewBox="0 0 300 300" version="1.1">
<defs>
<g>
<symbol overflow="visible" id="glyph0-0">
<path style="stroke:none;" d="M 0.546875 1.9375 L 0.546875 -7.75 L 6.046875 -7.75 L 6.046875 1.9375 Z M 1.171875 1.328125 L 5.4375 1.328125 L 5.4375 -7.140625 L 1.171875 -7.140625 Z M 1.171875 1.328125 "/>
</symbol>
<symbol overflow="visible" id="glyph0-1">
<path style="stroke:none;" d="M 1.078125 -8.015625 L 2.546875 -8.015625 L 6.09375 -1.3125 L 6.09375 -8.015625 L 7.15625 -8.015625 L 7.15625 0 L 5.6875 0 L 2.125 -6.703125 L 2.125 0 L 1.078125 0 Z M 1.078125 -8.015625 "/>
</symbol>
<symbol overflow="visible" id="glyph0-2">
<path style="stroke:none;" d="M 1.078125 -8.015625 L 2.171875 -8.015625 L 2.171875 -4.734375 L 6.109375 -4.734375 L 6.109375 -8.015625 L 7.1875 -8.015625 L 7.1875 0 L 6.109375 0 L 6.109375 -3.8125 L 2.171875 -3.8125 L 2.171875 0 L 1.078125 0 Z M 1.078125 -8.015625 "/>
</symbol>
</g>
</defs>
<g id="surface46149">
<rect x="0" y="0" width="300" height="300" style="fill:rgb(100%,100%,100%);fill-opacity:1;stroke:none;"/>
<path style="fill:none;stroke-width:1.2;stroke-linecap:butt;stroke-linejoin:miter;stroke:rgb(0%,0%,0%);stroke-opacity:1;stroke-miterlimit:10;" d="M 139.441406 229.351562 L 111.617188 233.339844 "/>
<path style="fill:none;stroke-width:1.2;stroke-linecap:butt;stroke-linejoin:miter;stroke:rgb(0%,0%,0%);stroke-opacity:1;stroke-miterlimit:10;" d="M 135.722656 223.207031 L 113.460938 226.394531 "/>
<path style="fill:none;stroke-width:1.2;stroke-linecap:butt;stroke-linejoin:miter;stroke:rgb(0%,0%,0%);stroke-opacity:1;stroke-miterlimit:10;" d="M 149.902344 203.261719 L 139.441406 229.351562 "/>
<path style="fill:none;stroke-width:1.2;stroke-linecap:butt;stroke-linejoin:miter;stroke:rgb(0%,0%,0%);stroke-opacity:1;stroke-miterlimit:10;" d="M 111.617188 233.339844 L 94.253906 211.238281 "/>
<path style="fill:none;stroke-width:1.2;stroke-linecap:butt;stroke-linejoin:miter;stroke:rgb(0%,0%,0%);stroke-opacity:1;stroke-miterlimit:10;" d="M 94.253906 211.238281 L 104.710938 185.148438 "/>
<path style="fill:none;stroke-width:1.2;stroke-linecap:butt;stroke-linejoin:miter;stroke:rgb(0%,0%,0%);stroke-opacity:1;stroke-miterlimit:10;" d="M 101.4375 211.089844 L 109.804688 190.21875 "/>
<path style="fill:none;stroke-width:1.2;stroke-linecap:butt;stroke-linejoin:miter;stroke:rgb(0%,0%,0%);stroke-opacity:1;stroke-miterlimit:10;" d="M 104.710938 185.148438 L 132.535156 181.160156 "/>
<path style="fill:none;stroke-width:1.2;stroke-linecap:butt;stroke-linejoin:miter;stroke:rgb(0%,0%,100%);stroke-opacity:1;stroke-miterlimit:10;" d="M 87.347656 163.046875 L 96.027344 174.097656 "/>
<path style="fill:none;stroke-width:1.2;stroke-linecap:butt;stroke-linejoin:miter;stroke:rgb(0%,0%,0%);stroke-opacity:1;stroke-miterlimit:10;" d="M 96.027344 174.097656 L 104.710938 185.148438 "/>
<path style="fill:none;stroke-width:1.2;stroke-linecap:butt;stroke-linejoin:miter;stroke:rgb(0%,0%,0%);stroke-opacity:1;stroke-miterlimit:10;" d="M 132.535156 181.160156 L 149.902344 203.261719 "/>
<path style="fill:none;stroke-width:1.2;stroke-linecap:butt;stroke-linejoin:miter;stroke:rgb(0%,0%,0%);stroke-opacity:1;stroke-miterlimit:10;" d="M 129.070312 187.457031 L 142.964844 205.140625 "/>
<path style="fill:none;stroke-width:1.2;stroke-linecap:butt;stroke-linejoin:miter;stroke:rgb(0%,0%,0%);stroke-opacity:1;stroke-miterlimit:10;" d="M 132.535156 181.160156 L 142.996094 155.070312 "/>
<path style="fill:none;stroke-width:1.2;stroke-linecap:butt;stroke-linejoin:miter;stroke:rgb(0%,0%,0%);stroke-opacity:1;stroke-miterlimit:10;" d="M 142.996094 155.070312 L 134.3125 144.019531 "/>
<path style="fill:none;stroke-width:1.2;stroke-linecap:butt;stroke-linejoin:miter;stroke:rgb(0%,0%,100%);stroke-opacity:1;stroke-miterlimit:10;" d="M 134.3125 144.019531 L 125.628906 132.96875 "/>
<path style="fill:none;stroke-width:1.2;stroke-linecap:butt;stroke-linejoin:miter;stroke:rgb(0%,0%,0%);stroke-opacity:1;stroke-miterlimit:10;" d="M 136.058594 156.945312 L 129.109375 148.105469 "/>
<path style="fill:none;stroke-width:1.2;stroke-linecap:butt;stroke-linejoin:miter;stroke:rgb(0%,0%,100%);stroke-opacity:1;stroke-miterlimit:10;" d="M 129.109375 148.105469 L 122.164062 139.261719 "/>
<path style="fill:none;stroke-width:1.2;stroke-linecap:butt;stroke-linejoin:miter;stroke:rgb(0%,0%,0%);stroke-opacity:1;stroke-miterlimit:10;" d="M 142.996094 155.070312 L 156.90625 153.078125 "/>
<path style="fill:none;stroke-width:1.2;stroke-linecap:butt;stroke-linejoin:miter;stroke:rgb(0%,0%,100%);stroke-opacity:1;stroke-miterlimit:10;" d="M 156.90625 153.078125 L 170.820312 151.082031 "/>
<path style="fill:none;stroke-width:1.2;stroke-linecap:butt;stroke-linejoin:miter;stroke:rgb(0%,0%,100%);stroke-opacity:1;stroke-miterlimit:10;" d="M 125.628906 132.96875 L 111.71875 134.960938 "/>
<path style="fill:none;stroke-width:1.2;stroke-linecap:butt;stroke-linejoin:miter;stroke:rgb(0%,0%,0%);stroke-opacity:1;stroke-miterlimit:10;" d="M 111.71875 134.960938 L 97.804688 136.953125 "/>
<path style=" stroke:none;fill-rule:nonzero;fill:rgb(100%,100%,100%);fill-opacity:1;" d="M 121.628906 126.46875 L 129.628906 126.46875 L 129.628906 139.46875 L 121.628906 139.46875 Z M 121.628906 126.46875 "/>
<g style="fill:rgb(0%,0%,100%);fill-opacity:1;">
  <use xlink:href="#glyph0-1" x="121.628906" y="136.370117"/>
</g>
<path style="fill:none;stroke-width:1.2;stroke-linecap:butt;stroke-linejoin:miter;stroke:rgb(0%,0%,0%);stroke-opacity:1;stroke-miterlimit:10;" d="M 97.804688 136.953125 L 92.574219 150 "/>
<path style="fill:none;stroke-width:1.2;stroke-linecap:butt;stroke-linejoin:miter;stroke:rgb(0%,0%,100%);stroke-opacity:1;stroke-miterlimit:10;" d="M 92.574219 150 L 87.347656 163.046875 "/>
<path style="fill:none;stroke-width:1.2;stroke-linecap:butt;stroke-linejoin:miter;stroke:rgb(0%,0%,0%);stroke-opacity:1;stroke-miterlimit:10;" d="M 102.898438 142.023438 L 98.714844 152.460938 "/>
<path style="fill:none;stroke-width:1.2;stroke-linecap:butt;stroke-linejoin:miter;stroke:rgb(0%,0%,100%);stroke-opacity:1;stroke-miterlimit:10;" d="M 98.714844 152.460938 L 94.53125 162.898438 "/>
<path style="fill:none;stroke-width:1.2;stroke-linecap:butt;stroke-linejoin:miter;stroke:rgb(0%,0%,0%);stroke-opacity:1;stroke-miterlimit:10;" d="M 97.804688 136.953125 L 80.441406 114.851562 "/>
<path style=" stroke:none;fill-rule:nonzero;fill:rgb(100%,100%,100%);fill-opacity:1;" d="M 83.347656 156.546875 L 91.347656 156.546875 L 91.347656 169.546875 L 83.347656 169.546875 Z M 83.347656 156.546875 "/>
<g style="fill:rgb(0%,0%,100%);fill-opacity:1;">
  <use xlink:href="#glyph0-1" x="83.347656" y="166.448242"/>
</g>
<path style="fill:none;stroke-width:1.2;stroke-linecap:butt;stroke-linejoin:miter;stroke:rgb(0%,0%,0%);stroke-opacity:1;stroke-miterlimit:10;" d="M 80.441406 114.851562 L 90.898438 88.761719 "/>
<path style="fill:none;stroke-width:1.2;stroke-linecap:butt;stroke-linejoin:miter;stroke:rgb(0%,0%,0%);stroke-opacity:1;stroke-miterlimit:10;" d="M 75.347656 109.78125 L 83.714844 88.910156 "/>
<path style="fill:none;stroke-width:1.2;stroke-linecap:butt;stroke-linejoin:miter;stroke:rgb(0%,0%,0%);stroke-opacity:1;stroke-miterlimit:10;" d="M 52.617188 118.839844 L 80.441406 114.851562 "/>
<path style="fill:none;stroke-width:1.2;stroke-linecap:butt;stroke-linejoin:miter;stroke:rgb(0%,0%,0%);stroke-opacity:1;stroke-miterlimit:10;" d="M 90.898438 88.761719 L 82.214844 77.710938 "/>
<path style="fill:none;stroke-width:1.2;stroke-linecap:butt;stroke-linejoin:miter;stroke:rgb(0%,0%,100%);stroke-opacity:1;stroke-miterlimit:10;" d="M 82.214844 77.710938 L 73.53125 66.660156 "/>
<path style="fill:none;stroke-width:1.2;stroke-linecap:butt;stroke-linejoin:miter;stroke:rgb(0%,0%,100%);stroke-opacity:1;stroke-miterlimit:10;" d="M 73.53125 66.660156 L 59.621094 68.652344 "/>
<path style="fill:none;stroke-width:1.2;stroke-linecap:butt;stroke-linejoin:miter;stroke:rgb(0%,0%,0%);stroke-opacity:1;stroke-miterlimit:10;" d="M 59.621094 68.652344 L 45.707031 70.648438 "/>
<path style="fill:none;stroke-width:1.2;stroke-linecap:butt;stroke-linejoin:miter;stroke:rgb(0%,0%,100%);stroke-opacity:1;stroke-miterlimit:10;" d="M 71.6875 73.605469 L 60.558594 75.199219 "/>
<path style="fill:none;stroke-width:1.2;stroke-linecap:butt;stroke-linejoin:miter;stroke:rgb(0%,0%,0%);stroke-opacity:1;stroke-miterlimit:10;" d="M 60.558594 75.199219 L 49.429688 76.792969 "/>
<path style=" stroke:none;fill-rule:nonzero;fill:rgb(100%,100%,100%);fill-opacity:1;" d="M 69.53125 60.160156 L 77.53125 60.160156 L 77.53125 73.160156 L 69.53125 73.160156 Z M 69.53125 60.160156 "/>
<g style="fill:rgb(0%,0%,100%);fill-opacity:1;">
  <use xlink:href="#glyph0-1" x="69.53125" y="70.061523"/>
</g>
<path style="fill:none;stroke-width:1.2;stroke-linecap:butt;stroke-linejoin:miter;stroke:rgb(0%,0%,0%);stroke-opacity:1;stroke-miterlimit:10;" d="M 45.707031 70.648438 L 35.25 96.738281 "/>
<path style="fill:none;stroke-width:1.2;stroke-linecap:butt;stroke-linejoin:miter;stroke:rgb(0%,0%,0%);stroke-opacity:1;stroke-miterlimit:10;" d="M 35.25 96.738281 L 52.617188 118.839844 "/>
<path style="fill:none;stroke-width:1.2;stroke-linecap:butt;stroke-linejoin:miter;stroke:rgb(0%,0%,0%);stroke-opacity:1;stroke-miterlimit:10;" d="M 42.1875 94.859375 L 56.078125 112.542969 "/>
<path style="fill:none;stroke-width:1.2;stroke-linecap:butt;stroke-linejoin:miter;stroke:rgb(0%,0%,100%);stroke-opacity:1;stroke-miterlimit:10;" d="M 170.820312 151.082031 L 176.046875 138.039062 "/>
<path style="fill:none;stroke-width:1.2;stroke-linecap:butt;stroke-linejoin:miter;stroke:rgb(0%,0%,0%);stroke-opacity:1;stroke-miterlimit:10;" d="M 176.046875 138.039062 L 181.277344 124.992188 "/>
<path style=" stroke:none;fill-rule:nonzero;fill:rgb(100%,100%,100%);fill-opacity:1;" d="M 162.820312 144.582031 L 179.820312 144.582031 L 179.820312 157.582031 L 162.820312 157.582031 Z M 162.820312 144.582031 "/>
<g style="fill:rgb(0%,0%,100%);fill-opacity:1;">
  <use xlink:href="#glyph0-1" x="162.820312" y="154.483398"/>
  <use xlink:href="#glyph0-2" x="170.803711" y="154.483398"/>
</g>
<path style="fill:none;stroke-width:1.2;stroke-linecap:butt;stroke-linejoin:miter;stroke:rgb(0%,0%,0%);stroke-opacity:1;stroke-miterlimit:10;" d="M 181.277344 124.992188 L 209.101562 121.003906 "/>
<path style="fill:none;stroke-width:1.2;stroke-linecap:butt;stroke-linejoin:miter;stroke:rgb(0%,0%,0%);stroke-opacity:1;stroke-miterlimit:10;" d="M 209.101562 121.003906 L 226.46875 143.109375 "/>
<path style="fill:none;stroke-width:1.2;stroke-linecap:butt;stroke-linejoin:miter;stroke:rgb(0%,0%,0%);stroke-opacity:1;stroke-miterlimit:10;" d="M 216.039062 119.128906 L 229.929688 136.8125 "/>
<path style="fill:none;stroke-width:1.2;stroke-linecap:butt;stroke-linejoin:miter;stroke:rgb(0%,0%,0%);stroke-opacity:1;stroke-miterlimit:10;" d="M 219.558594 94.914062 L 209.101562 121.003906 "/>
<path style="fill:none;stroke-width:1.2;stroke-linecap:butt;stroke-linejoin:miter;stroke:rgb(0%,0%,0%);stroke-opacity:1;stroke-miterlimit:10;" d="M 226.46875 143.109375 L 240.378906 141.113281 "/>
<path style="fill:none;stroke-width:1.2;stroke-linecap:butt;stroke-linejoin:miter;stroke:rgb(0%,0%,100%);stroke-opacity:1;stroke-miterlimit:10;" d="M 240.378906 141.113281 L 254.292969 139.121094 "/>
<path style="fill:none;stroke-width:1.2;stroke-linecap:butt;stroke-linejoin:miter;stroke:rgb(0%,0%,100%);stroke-opacity:1;stroke-miterlimit:10;" d="M 254.292969 139.121094 L 259.519531 126.074219 "/>
<path style="fill:none;stroke-width:1.2;stroke-linecap:butt;stroke-linejoin:miter;stroke:rgb(0%,0%,0%);stroke-opacity:1;stroke-miterlimit:10;" d="M 259.519531 126.074219 L 264.75 113.03125 "/>
<path style="fill:none;stroke-width:1.2;stroke-linecap:butt;stroke-linejoin:miter;stroke:rgb(0%,0%,100%);stroke-opacity:1;stroke-miterlimit:10;" d="M 249.199219 134.050781 L 253.382812 123.613281 "/>
<path style="fill:none;stroke-width:1.2;stroke-linecap:butt;stroke-linejoin:miter;stroke:rgb(0%,0%,0%);stroke-opacity:1;stroke-miterlimit:10;" d="M 253.382812 123.613281 L 257.566406 113.179688 "/>
<path style=" stroke:none;fill-rule:nonzero;fill:rgb(100%,100%,100%);fill-opacity:1;" d="M 250.292969 132.621094 L 258.292969 132.621094 L 258.292969 145.621094 L 250.292969 145.621094 Z M 250.292969 132.621094 "/>
<g style="fill:rgb(0%,0%,100%);fill-opacity:1;">
  <use xlink:href="#glyph0-1" x="250.292969" y="142.522461"/>
</g>
<path style="fill:none;stroke-width:1.2;stroke-linecap:butt;stroke-linejoin:miter;stroke:rgb(0%,0%,0%);stroke-opacity:1;stroke-miterlimit:10;" d="M 264.75 113.03125 L 247.382812 90.925781 "/>
<path style="fill:none;stroke-width:1.2;stroke-linecap:butt;stroke-linejoin:miter;stroke:rgb(0%,0%,0%);stroke-opacity:1;stroke-miterlimit:10;" d="M 247.382812 90.925781 L 219.558594 94.914062 "/>
<path style="fill:none;stroke-width:1.2;stroke-linecap:butt;stroke-linejoin:miter;stroke:rgb(0%,0%,0%);stroke-opacity:1;stroke-miterlimit:10;" d="M 245.539062 97.871094 L 223.28125 101.0625 "/>
</g>
</svg>

<svg xmlns="http://www.w3.org/2000/svg" xmlns:xlink="http://www.w3.org/1999/xlink" width="300pt" height="300pt" viewBox="0 0 300 300"><defs><symbol overflow="visible"><path d="M.547 1.938V-7.75h5.5v9.688zm.625-.61h4.266v-8.47H1.171zm0 0"/></symbol><symbol overflow="visible" id="a"><path d="M1.078-8.016h1.47l3.546 6.704v-6.704h1.062V0H5.688L2.124-6.703V0H1.078zm0 0"/></symbol><symbol overflow="visible" id="b"><path d="M1.078-8.016h1.094v3.282H6.11v-3.282h1.077V0H6.11v-3.813H2.17V0H1.078zm0 0"/></symbol></defs><g><path fill="#fff" d="M0 0h300v300H0z"/><path d="M139.44 229.352l-27.823 3.988M135.723 223.207l-22.262 3.188M149.902 203.262l-10.46 26.09M111.617 233.34l-17.363-22.102M94.254 211.238l10.457-26.09M101.438 211.09l8.367-20.87M104.71 185.148l27.825-3.988" stroke-width="1.2" stroke="#000" stroke-miterlimit="10" fill="none"/><path d="M87.348 163.047l8.68 11.05" stroke-width="1.2" stroke="#00f" stroke-miterlimit="10" fill="none"/><path d="M96.027 174.098l8.684 11.05M132.535 181.16l17.367 22.102M129.07 187.457l13.895 17.684M132.535 181.16l10.46-26.09M142.996 155.07l-8.684-11.05" stroke-width="1.2" stroke="#000" stroke-miterlimit="10" fill="none"/><path d="M134.313 144.02l-8.684-11.05" stroke-width="1.2" stroke="#00f" stroke-miterlimit="10" fill="none"/><path d="M136.06 156.945l-6.95-8.84" stroke-width="1.2" stroke="#000" stroke-miterlimit="10" fill="none"/><path d="M129.11 148.105l-6.946-8.843" stroke-width="1.2" stroke="#00f" stroke-miterlimit="10" fill="none"/><path d="M142.996 155.07l13.91-1.992" stroke-width="1.2" stroke="#000" stroke-miterlimit="10" fill="none"/><path d="M156.906 153.078l13.914-1.996M125.63 132.97l-13.91 1.99" stroke-width="1.2" stroke="#00f" stroke-miterlimit="10" fill="none"/><path d="M111.72 134.96l-13.915 1.993" stroke-width="1.2" stroke="#000" stroke-miterlimit="10" fill="none"/><path d="M121.63 126.47h8v13h-8zm0 0" fill="#fff"/><use xlink:href="#a" x="121.629" y="136.37" fill="#00f"/><path d="M97.805 136.953L92.575 150" stroke-width="1.2" stroke="#000" stroke-miterlimit="10" fill="none"/><path d="M92.574 150l-5.226 13.047" stroke-width="1.2" stroke="#00f" stroke-miterlimit="10" fill="none"/><path d="M102.898 142.023l-4.183 10.438" stroke-width="1.2" stroke="#000" stroke-miterlimit="10" fill="none"/><path d="M98.715 152.46L94.53 162.9" stroke-width="1.2" stroke="#00f" stroke-miterlimit="10" fill="none"/><path d="M97.805 136.953l-17.364-22.1" stroke-width="1.2" stroke="#000" stroke-miterlimit="10" fill="none"/><path d="M83.348 156.547h8v13h-8zm0 0" fill="#fff"/><use xlink:href="#a" x="83.348" y="166.448" fill="#00f"/><path d="M80.44 114.852L90.9 88.762M75.348 109.78l8.367-20.87M52.617 118.84l27.824-3.988M90.898 88.762l-8.683-11.05" stroke-width="1.2" stroke="#000" stroke-miterlimit="10" fill="none"/><path d="M82.215 77.71L73.53 66.66M73.53 66.66l-13.91 1.992" stroke-width="1.2" stroke="#00f" stroke-miterlimit="10" fill="none"/><path d="M59.62 68.652l-13.913 1.996" stroke-width="1.2" stroke="#000" stroke-miterlimit="10" fill="none"/><path d="M71.688 73.605L60.557 75.2" stroke-width="1.2" stroke="#00f" stroke-miterlimit="10" fill="none"/><path d="M60.56 75.2l-11.13 1.593" stroke-width="1.2" stroke="#000" stroke-miterlimit="10" fill="none"/><path d="M69.53 60.16h8v13h-8zm0 0" fill="#fff"/><use xlink:href="#a" x="69.531" y="70.062" fill="#00f"/><path d="M45.707 70.648L35.25 96.738M35.25 96.738l17.367 22.102M42.188 94.86l13.89 17.683" stroke-width="1.2" stroke="#000" stroke-miterlimit="10" fill="none"/><path d="M170.82 151.082l5.227-13.043" stroke-width="1.2" stroke="#00f" stroke-miterlimit="10" fill="none"/><path d="M176.047 138.04l5.23-13.048" stroke-width="1.2" stroke="#000" stroke-miterlimit="10" fill="none"/><path d="M162.82 144.582h17v13h-17zm0 0" fill="#fff"/><g fill="#00f"><use xlink:href="#a" x="162.82" y="154.483"/><use xlink:href="#b" x="170.804" y="154.483"/></g><path d="M181.277 124.992l27.825-3.988M209.102 121.004l17.367 22.105M216.04 119.13l13.89 17.683M219.56 94.914l-10.458 26.09M226.47 143.11l13.91-1.997" stroke-width="1.2" stroke="#000" stroke-miterlimit="10" fill="none"/><path d="M240.38 141.113l13.913-1.992M254.293 139.12l5.227-13.046" stroke-width="1.2" stroke="#00f" stroke-miterlimit="10" fill="none"/><path d="M259.52 126.074l5.23-13.043" stroke-width="1.2" stroke="#000" stroke-miterlimit="10" fill="none"/><path d="M249.2 134.05l4.183-10.437" stroke-width="1.2" stroke="#00f" stroke-miterlimit="10" fill="none"/><path d="M253.383 123.613l4.183-10.433" stroke-width="1.2" stroke="#000" stroke-miterlimit="10" fill="none"/><path d="M250.293 132.62h8v13h-8zm0 0" fill="#fff"/><use xlink:href="#a" x="250.293" y="142.522" fill="#00f"/><path d="M264.75 113.03l-17.367-22.104M247.383 90.926l-27.824 3.988M245.54 97.87l-22.26 3.192" stroke-width="1.2" stroke="#000" stroke-miterlimit="10" fill="none"/></g></svg>
